X:2128
T:Breugestanz
M:2/4
L:1/8
Q:1/4=90
C:Trad Yiddish
S:Caravanserai
K:Dm
^GA AA|A2 GF|GA F2|F3 F|EF^GA|^GF ED|EF D2|D4|!
dA AA|A2 GF|GA F2|F3 F|EF ^GA|^GF ED|EF D2|D4|
||:A2 dA|dA d2|d2 fd|fd f2|ef ^ga|^gf ed|ef d2|d4:|!
